X: 28405
T: Mulhaire's
R: reel
M: 4/4
K: Dmajor
F2AF DFAF|G2BG DGBG|cAec AecA|(3Bcd de fdAG|
F2AF DFAF|GBB2 dBB2|Ae e2 gecA|1 (3Bcd dc dBAG:|2 (3Bcd dc defg|
|:a2fd Adfd|Adfd edBd|e3f g3a|b3g b3g|
a2fd Adfd|Adfd edBA|FA A2 GBdB|AFEF D4:|

